white/btm.svg

<!-- Generated by IcoMoon.io -->
<svg version="1.1" xmlns="http://www.w3.org/2000/svg" width="32" height="32" viewBox="0 0 32 32">
<title>btm</title>
<path fill="#fff" d="M10.827 15.376l1.745-3.7-6.572 6.572 3.894 3.858-0.812-3.032 1.745-3.699-1.745 3.7 5.442-5.443-1.952-1.955-1.745 3.699zM16 32c-8.837 0-16-7.163-16-16s7.163-16 16-16 16 7.163 16 16-7.163 16-16 16zM12.926 9.082l5.442 5.442-4.616-8.524-3.86 3.894 3.034-0.812zM19.074 22.918l-5.442-5.442 4.616 8.524 3.858-3.894-3.032 0.812zM20.040 9.34l2.066 0.552 0.814 3.032-5.444 5.444 1.952 1.953 6.572-6.571-1.638-6.113-6.114-1.637-0.772 0.775 2.564 2.565zM13.752 26l0.772-0.775-2.564-2.567-2.066-0.552-3.894-3.858 1.64 6.112 6.112 1.64zM26 18.248l-0.775-0.772-2.565 2.564-0.554 2.066-3.858 3.894 6.114-1.638 1.638-6.114zM6 13.752l0.775 0.772 2.565-2.566 0.552-2.064 3.86-3.894-6.112 1.638-1.64 6.114zM20.32 12.569l-6.568-6.569 4.616 8.524 1.953-1.955zM11.68 19.429l6.567 6.571-4.616-8.524-1.953 1.952z"></path>
</svg>

<svg xmlns="http://www.w3.org/2000/svg" width="32" height="32"><path fill="#FFF" d="M10.827 15.376l1.745-3.7L7.23 17.02 6 18.248l3.894 3.858-.812-3.032 1.745-3.699-1.745 3.7 5.442-5.443-1.952-1.955-1.745 3.699zM16 32C7.163 32 0 24.837 0 16S7.163 0 16 0s16 7.163 16 16-7.163 16-16 16zM12.926 9.082l5.442 5.442L13.752 6l-3.86 3.894 3.034-.812zm6.148 13.836l-5.442-5.442L18.248 26l3.858-3.894-3.032.812zM20.04 9.34l2.066.552.814 3.032-5.444 5.444 1.952 1.953L26 13.75l-1.638-6.113L18.248 6l-.772.775L20.04 9.34zM13.752 26l.772-.775-2.564-2.567-2.066-.552L6 18.248l1.64 6.112L13.752 26zM26 18.248l-.775-.772-2.565 2.564-.554 2.066L18.248 26l6.114-1.638L26 18.248zM6 13.752l.775.772 2.565-2.566.552-2.064L13.752 6 7.64 7.638 6 13.752zm14.32-1.183l-5.34-5.338L13.752 6l4.616 8.524 1.953-1.955zm-8.64 6.86L18.247 26l-4.616-8.524-1.953 1.952z"/></svg>
